X:1
T:Lass of Paties Mill. SenH.125, The
T:Lass of Paties Mill. SenH.125, The
T:in Hand C
C:in Hand C
L:1/8
Q:1/4=100
M:4/4
K:G
V:1 treble 
V:1
 (dc) | B2 (AG) B2 d2 | g4 d4 | efgd edcB | A4 A2 dc | B2 (AG) B2 d2 | b4 d4 | efge fgaf | g4 g2 || %9
 (bc') | Ta2 g2 Tf2 (ed) | g4 d4 | efgd edcB | A4 A2 (bc') | (d'c')(ba) bagb | a4 d4 | efge fgaf | %17
 g4 g2 ||"^or sometimes end thus" (bc') | (d'b)(c'a) bagb | (af) (f/g/a) d4 | (efge) (fgaf) | %22
 g4 g2 |] %23

